X: 11626
T: Eighth Of January
R: reel
M: 4/4
K: Dmajor
|:de|fefa fedf|efed B2 cd|edef edBc|dBAF D2:|
DE|F2A2 A3F|ABAG FEDE|FDAD BDAB|AFE2 D||
de|f2a2 a3f|abaf edde|fa2fa2 ab|afecd2||

